build/images/starRating/star-filled.svg

<svg width="14" height="14" viewBox="0 0 14 14" fill="none" xmlns="http://www.w3.org/2000/svg">
<g clip-path="url(#clip0_47_2522)">
<path d="M13.9799 5.39375C13.9317 5.24525 13.8033 5.13702 13.6488 5.1146L9.30878 4.48392L7.3678 0.551161C7.29873 0.411161 7.15613 0.32254 7.00002 0.32254C6.84389 0.32254 6.70132 0.411161 6.63222 0.551161L4.69115 4.48392L0.351171 5.1146C0.196707 5.13702 0.0683282 5.24525 0.020094 5.39372C-0.0281676 5.54223 0.0120823 5.70522 0.12389 5.81419L3.26425 8.87542L2.52302 13.198C2.49661 13.3519 2.55988 13.5074 2.68618 13.5991C2.75763 13.651 2.84226 13.6775 2.9273 13.6775C2.99259 13.6775 3.05811 13.6619 3.1181 13.6303L7 11.5895L10.8817 13.6303C11.0199 13.703 11.1874 13.6909 11.3137 13.5991C11.44 13.5073 11.5033 13.3518 11.4769 13.1979L10.7354 8.87542L13.8761 5.81416C13.9879 5.70522 14.0282 5.54222 13.9799 5.39375Z" fill="#F4C005"/>
</g>
<defs>
<clipPath id="clip0_47_2522">
<rect width="14" height="14" fill="white"/>
</clipPath>
</defs>
</svg>

<svg xmlns="http://www.w3.org/2000/svg" width="14" height="14" fill="none"><g clip-path="url(#a)"><path fill="#F4C005" d="M13.98 5.394a.41.41 0 0 0-.331-.28l-4.34-.63L7.368.55a.41.41 0 0 0-.736 0l-1.94 3.933-4.34.63a.41.41 0 0 0-.228.7l3.14 3.061-.741 4.323a.41.41 0 0 0 .595.432L7 11.59l3.882 2.04a.41.41 0 0 0 .595-.432l-.742-4.323 3.141-3.06a.41.41 0 0 0 .104-.421Z"/></g><defs><clipPath id="a"><path fill="#fff" d="M0 0h14v14H0z"/></clipPath></defs></svg>
